X: 05045
T: JONNY'S BREAKFAST
C: Bob McQuillen 10 Dec 80
B: Bob's Note Book 5 #45
%R: reel
Z: 2021 John Chambers <jc:trillian.mit.edu>
M: C
L: 1/8
K: F
FG \
| AFAc fcAc | BdcB Acfa | bagf efge | f2F2 FAcB || AFAc fcAc | fagf e2ef | g2gf gagf | e2c2 efga |
| b2ba gfed | efga g2fg | a2ab agfe | f2cd c2Ac || dBdf cAcf | edcB Acfa | bagf efge | f2a2 f2 |]
[| ag \
| fcAc BdcB | AFAc fagf | edcb agfe | f2c2 c2ag || fcAc BdcB | AFAc fagf | edef gfdf | e2c2 defg |
| abag fcfg | abag fcfa | bagb agfa | gagf edcB || AFAc BdcB | Acfa gfed | cdef gagb | a2f2 f2 |]
%%begintext align
%% Well, you see, I cooked Jon Bicknell _his_
%% breakfast this time, and I only hope this tune came out better
%% than _that_ experiment did!
%%endtext

%%sep 1 1 500

%%sep 1 1 500

